public/img/retro_swirl_web.svg

<svg width="1512" height="762" fill="none" xmlns="http://www.w3.org/2000/svg"><g opacity=".4" clip-path="url(#a)"><path d="M253.996 514.315c-55.531 0-134.041-10.511-134.041-10.511a2278.28 2278.28 0 0 1-139.937-23.287v-44.355a1127.219 1127.219 0 0 0 147.517 34.51c74.125 12.157 138.902 22.238 216.835 8.501 32.188-5.672 75.828-13.804 110.771-41.667 25.944-20.686 35.071-42.662 43.026-61.829 11.737-28.273 13.165-59.947 16.021-123.301.696-15.478.677-22.064 2.289-34.732 1.821-14.241 5.611-43.959 18.529-71.379 6.362-13.501 26.969-55.47 82.162-86.452 51.22-28.75 105.259-32.91 135.488-34.947C839.057 19.039 907.808 41.15 974.197 62.5c72.563 23.334 80.823 36.217 155.953 55.296 63.14 16.035 110.47 20.431 120.52 21.318 60.87 5.383 124.2 10.974 185.83-14.113 17.71-7.211 51.82-21.553 72.44-52.26 21.12-31.458 15.59-61.452 12.7-72.742 21.06.161 42.1.323 63.16.49 3.74 39.39-12.43 66.675-21.05 78.812-32.22 45.404-90.15 64.188-122.17 74.578-37.98 12.312-69.77 15.437-90.09 17.937-70.46 8.676-124.84-.625-177.42-9.617-54.63-9.342-81.77-18.972-116.13-31.163-27.94-9.913-59.603-21.143-116.132-35.908-151.747-39.618-199.863-30.081-217.98-26.492-44.665 8.85-76.862 26.996-85.669 32.339-14.857 9.026-42.596 28.717-61.509 59.208-12.56 20.255-13.155 32.292-14.446 58.663-.806 16.344-1.895 38.724-6.509 70.559-7.315 50.518-11.736 81.016-34.055 116.204-11.846 18.67-33.881 53.429-83.984 78.1-38.047 18.736-73.155 22.507-113.801 26.868a651.856 651.856 0 0 1-69.886 3.737h.027Z" fill="#F2E291"/><path d="M65.403 589.376c-12.377 0-29.414.531-52.337-.51a731.154 731.154 0 0 1-32.124-2.164c-.302-35.397-.613-70.788-.915-106.185 25.376 5.404 60.356 12.158 102.531 18.146 47.165 6.693 92.7 13.158 151.966 13.441 56.649.269 108.61.51 167.529-19.49 18.685-6.344 54.534-18.858 86.054-46.371 22.437-19.591 32.709-38.072 40.344-52.138 17.87-32.924 21.064-60.7 25.569-103.778 4.229-40.451-.037-42.602 5.492-73.926 6.363-36.069 9.732-55.182 24.718-75.942 31.372-43.468 90.072-61.432 108.939-67.205 68.431-20.942 131.03-12.85 170.276-7.393 23.197 3.226 34.393 6.371 181.265 55.108 97.18 32.252 123.84 41.345 170.27 47.044 56.06 6.882 100.01 3.797 113.52 2.688 49.44-4.059 156.74-12.775 216.96-75.27 34.74-36.048 39.8-74.987 40.28-95.431h75.07c-.42 13.938-2.91 34.113-12.82 57.124-16.83 39.12-45.26 63.61-68.14 83.328-12.53 10.793-33.57 27.097-67.35 42.346-36.5 16.486-68.71 22.554-88.79 26.21-49.78 9.066-89.45 7.944-125.42 6.721a777.753 777.753 0 0 1-112.6-12.097c-61.52-11.197-106.32-27.111-151.05-43.012-42.528-15.114-75.878-29.449-135.493-45.027-22.95-5.995-36.874-8.804-54.012-10.081-14.711-1.095-59.514-3.985-107.108 14.785 0 0-52.163 20.572-79.471 62.515-2.307 3.541-4.156 6.922-7.864 13.676 0 0-16.405 29.926-27.098 60.901-19.572 56.708-.247 101.682-29.358 160.338-22.347 45.015-61.071 73.113-77.503 85.163-52.071 38.193-108.345 52.44-149.43 62.85-69.044 17.487-124.823 19.288-217.23 22.279a2618.196 2618.196 0 0 1-84.68 1.357h.01Z" fill="#97BAB3"/><path d="M-19.973 725.816c.458-28.891.925-57.783 1.383-86.674 78.51 2.184 157.385.853 234.449-3.959 144.249-8.999 199.551-24.516 234.623-38.502 38.998-15.551 66.251-33.051 79.031-42.097 11.26-7.977 40.308-30.269 66.682-64.988 14.712-19.361 34.705-51.438 46.423-94.342 2.252-8.253 3.955-15.995 5.227-23.314 4.248-24.335 1.923-32.05 4.092-54.9 1.575-16.532 3.351-33.824 11.929-54.94 6.289-15.484 10.445-25.726 21.66-37.541 23.06-24.301 56.566-34.678 71.735-39.523 34.577-11.055 71.332-13.394 112.372-7.144 34.229 5.208 69.127 15.874 106.075 27.164 24.392 7.453 49.622 15.162 77.352 22.252 57.94 14.805 153.3 34.033 257.49 34.039 49.3 0 100.58-4.307 150.81-15.423 87.17-19.295 140.59-56.99 154.71-66.789C1711.7 112.73 1733.01 29.389 1738.6.013v151.871c-14.29 16.008-35.89 37.957-66.06 61.472-36.05 28.092-103.33 80.169-211.33 105.196-16.85 3.905-78.99 17.487-160.2 14.786-117.32-3.905-226.72-40.216-272.03-55.256-13.9-4.611-41.6-14.12-81.423-23.388-93.953-21.868-129.354-13.091-139.983-10.067-7.726 2.204-33.469 9.805-52.181 28.226-38.943 38.327-3.121 79.82-12.816 149.868-7.342 53.058-36.509 91.419-48.519 106.856-51.532 66.21-130.49 98.267-181.261 118.281-81.632 32.171-152.873 41.15-292.031 57.797A3405.961 3405.961 0 0 1-20 725.816h.027Z" fill="#C6613C"/><path d="M-19.973 658.611v-98.792c93.35 8.475 172.262 7.924 230.686 5.229 147.252-6.788 211.16-29.147 234.623-38.502 35.401-14.12 59.789-26.761 79.032-42.097 12.331-9.826 35.327-30.411 54.369-69.121 34.778-70.679 6.234-99.873 38.449-194.223 7.699-22.561 16.195-40.968 34.788-59.812 8.385-8.502 37.066-35.565 86.968-49.732 35.904-10.195 73.328-11.029 130.911-2.689 110.724 16.036 134.817 42.662 264.567 76.614 63.35 16.58 109.88 28.442 175.77 30.243 42.98 1.176 106.73 2.332 176.68-23.522 17.14-6.331 78.16-30.384 124.07-83.22 38.74-44.578 47.47-87.488 49.87-108.987h77.81c-3.24 29.617-15.6 87.387-71.2 143.221-71.64 71.93-170.39 95.774-211.33 105.196-67.21 15.464-122.48 15.195-160.2 14.786-105.08-1.143-194.07-23.489-242.95-36.049-18.41-4.738-14.02-4.086-46.68-12.769-94.25-25.048-142.257-37.548-185.842-36.291-22.813.658-63.304 2.224-97.039 22.85-19.883 12.157-29.954 26.371-35.703 35.618-40.069 64.45-19.197 126.998-43.026 191.535-30.86 83.597-122.882 133.067-152.882 149.196-56.667 30.464-108.134 41.882-166.613 54.436-74.39 15.968-192.439 33.992-345.128 26.882Z" fill="#584239"/></g><defs><clipPath id="a"><path fill="#fff" d="M0 0h1512v762H0z"/></clipPath></defs></svg>

<svg width="1512" height="762" viewBox="0 0 1512 762" fill="none" xmlns="http://www.w3.org/2000/svg">
<g clip-path="url(#clip0_456_3629)">
<g opacity="0.4">
<path d="M253.996 514.315C198.465 514.315 119.955 503.804 119.955 503.804C82.1557 498.723 34.68 491.364 -19.9821 480.517V436.162C39.8157 454.482 91.2187 464.711 127.535 470.672C201.66 482.829 266.437 492.91 344.37 479.173C376.558 473.501 420.198 465.369 455.141 437.506C481.085 416.82 490.212 394.844 498.167 375.677C509.904 347.404 511.332 315.73 514.188 252.376C514.884 236.898 514.865 230.312 516.477 217.644C518.298 203.403 522.088 173.685 535.006 146.265C541.368 132.764 561.975 90.7943 617.168 59.8126C668.388 31.0623 722.427 26.9022 752.656 24.8659C839.057 19.0392 907.808 41.1498 974.197 62.5009C1046.76 85.8345 1055.02 98.7177 1130.15 117.797C1193.29 133.832 1240.62 138.228 1250.67 139.115C1311.54 144.498 1374.87 150.089 1436.5 125.002C1454.21 117.791 1488.32 103.449 1508.94 72.7429C1530.06 41.2842 1524.53 11.2905 1521.64 0C1542.7 0.161293 1563.74 0.322585 1584.8 0.490598C1588.54 39.8796 1572.37 67.1649 1563.75 79.3022C1531.53 124.706 1473.6 143.49 1441.58 153.88C1403.6 166.192 1371.81 169.317 1351.49 171.817C1281.03 180.493 1226.65 171.192 1174.07 162.2C1119.44 152.858 1092.3 143.228 1057.94 131.037C1030 121.124 998.337 109.894 941.808 95.129C790.061 55.5115 741.945 65.0479 723.828 68.6367C679.163 77.4876 646.966 95.633 638.159 100.976C623.302 110.002 595.563 129.693 576.65 160.184C564.09 180.439 563.495 192.476 562.204 218.847C561.398 235.191 560.309 257.571 555.695 289.406C548.38 339.924 543.959 370.422 521.64 405.61C509.794 424.28 487.759 459.039 437.656 483.71C399.609 502.446 364.501 506.217 323.855 510.578C299.11 513.233 275.958 514.315 253.969 514.315H253.996Z" fill="#F2E291"/>
<path d="M65.4027 589.376C53.0256 589.376 35.989 589.907 13.0659 588.866C-0.272353 588.261 -11.3402 587.394 -19.0576 586.702C-19.3597 551.305 -19.6709 515.914 -19.973 480.517C5.40349 485.921 40.3832 492.675 82.5583 498.663C129.723 505.356 175.258 511.821 234.524 512.104C291.173 512.373 343.134 512.614 402.053 492.614C420.738 486.27 456.587 473.756 488.107 446.243C510.544 426.652 520.816 408.171 528.451 394.105C546.321 361.181 549.515 333.405 554.02 290.327C558.249 249.876 553.983 247.725 559.512 216.401C565.875 180.332 569.244 161.219 584.23 140.459C615.602 96.9906 674.302 79.0266 693.169 73.2537C761.6 52.3125 824.199 60.404 863.445 65.8611C886.642 69.087 897.838 72.2322 1044.71 120.969C1141.89 153.221 1168.55 162.314 1214.98 168.013C1271.04 174.895 1314.99 171.81 1328.5 170.701C1377.94 166.642 1485.24 157.926 1545.46 95.4314C1580.2 59.3825 1585.26 20.4438 1585.74 0L1660.81 0C1660.39 13.9384 1657.9 34.1134 1647.99 57.1244C1631.16 96.2446 1602.73 120.734 1579.85 140.452C1567.32 151.245 1546.28 167.549 1512.5 182.798C1476 199.284 1443.79 205.352 1423.71 209.008C1373.93 218.074 1334.26 216.952 1298.29 215.729C1272.35 214.848 1232.8 212.207 1185.69 203.632C1124.17 192.435 1079.37 176.521 1034.64 160.62C992.112 145.506 958.762 131.171 899.147 115.593C876.197 109.598 862.273 106.789 845.135 105.512C830.424 104.417 785.621 101.527 738.027 120.297C738.027 120.297 685.864 140.869 658.556 182.812C656.249 186.353 654.4 189.734 650.692 196.488C650.692 196.488 634.287 226.414 623.594 257.389C604.022 314.097 623.347 359.071 594.236 417.727C571.889 462.742 533.165 490.84 516.733 502.89C464.662 541.083 408.388 555.33 367.303 565.74C298.259 583.227 242.48 585.028 150.073 588.019C122.07 588.926 93.791 589.376 65.3935 589.376H65.4027Z" fill="#97BAB3"/>
<path d="M-19.9725 725.816C-19.5148 696.925 -19.0479 668.033 -18.5902 639.142C59.9195 641.326 138.795 639.995 215.859 635.183C360.108 626.184 415.41 610.667 450.482 596.681C489.48 581.13 516.733 563.63 529.513 554.584C540.773 546.607 569.821 524.315 596.195 489.596C610.907 470.235 630.9 438.158 642.618 395.254C644.87 387.001 646.573 379.259 647.845 371.94C652.093 347.605 649.768 339.89 651.937 317.04C653.512 300.508 655.288 283.216 663.866 262.1C670.155 246.616 674.311 236.374 685.526 224.559C708.586 200.258 742.092 189.881 757.261 185.036C791.838 173.981 828.593 171.642 869.633 177.892C903.862 183.1 938.76 193.766 975.708 205.056C1000.1 212.509 1025.33 220.218 1053.06 227.308C1111 242.113 1206.36 261.341 1310.55 261.347C1359.85 261.347 1411.13 257.04 1461.36 245.924C1548.53 226.629 1601.95 188.934 1616.07 179.135C1711.7 112.73 1733.01 29.3886 1738.6 0.0131836V151.884C1724.31 167.892 1702.71 189.841 1672.54 213.356C1636.49 241.448 1569.21 293.525 1461.21 318.552C1444.36 322.457 1382.22 336.039 1301.01 333.338C1183.69 329.433 1074.29 293.122 1028.98 278.082C1015.08 273.471 987.38 263.962 947.557 254.694C853.604 232.826 818.203 241.603 807.574 244.627C799.848 246.831 774.105 254.432 755.393 272.853C716.45 311.18 752.272 352.673 742.577 422.721C735.235 475.779 706.068 514.14 694.058 529.577C642.526 595.787 563.568 627.844 512.797 647.858C431.165 680.029 359.924 689.008 220.766 705.655C123.388 717.301 40.7041 722.899 -20 725.816H-19.9725Z" fill="#C6613C"/>
<path d="M-19.973 658.611V559.819C73.3763 568.294 152.289 567.743 210.713 565.048C357.965 558.26 421.873 535.901 445.336 526.546C480.737 512.426 505.125 499.785 524.368 484.449C536.699 474.623 559.695 454.038 578.737 415.328C613.515 344.649 584.971 315.455 617.186 221.105C624.885 198.544 633.381 180.137 651.974 161.293C660.359 152.791 689.04 125.728 738.942 111.561C774.846 101.366 812.27 100.532 869.853 108.872C980.577 124.908 1004.67 151.534 1134.42 185.486C1197.77 202.066 1244.3 213.928 1310.19 215.729C1353.17 216.905 1416.92 218.061 1486.87 192.207C1504.01 185.876 1565.03 161.823 1610.94 108.987C1649.68 64.4095 1658.41 21.4989 1660.81 0L1738.62 0C1735.38 29.6173 1723.02 87.3869 1667.42 143.221C1595.78 215.151 1497.03 238.995 1456.09 248.417C1388.88 263.881 1333.61 263.612 1295.89 263.203C1190.81 262.06 1101.82 239.714 1052.94 227.154C1034.53 222.416 1038.92 223.068 1006.26 214.385C912.01 189.337 864.003 176.837 820.418 178.094C797.605 178.752 757.114 180.318 723.379 200.944C703.496 213.101 693.425 227.315 687.676 236.562C647.607 301.012 668.479 363.56 644.65 428.097C613.79 511.694 521.768 561.164 491.768 577.293C435.101 607.757 383.634 619.175 325.155 631.729C250.765 647.697 132.716 665.721 -19.973 658.611Z" fill="#584239"/>
</g>
</g>
<defs>
<clipPath id="clip0_456_3629">
<rect width="1512" height="762" fill="white"/>
</clipPath>
</defs>
</svg>
